X: 1
T: Paddy's #2
M: 2/4
L: 1/8
R: polka
K: Gmaj
D2 G>A|Bd B2|AG/A/ BA|AG ED|
D2 G>A|Bd B2|AG/A/ BA|G2 G2:|
|:g2 e2|dB d2|G>A BA|AG ED|
D2 G>A|Bd B2|AG/A/ BA| G2 G2:|
